images/157702.svg

<?xml version="1.0" encoding="UTF-8"?>
<svg xmlns="http://www.w3.org/2000/svg" xmlns:xlink="http://www.w3.org/1999/xlink" width="300pt" height="300pt" viewBox="0 0 300 300" version="1.1">
<defs>
<g>
<symbol overflow="visible" id="glyph0-0">
<path style="stroke:none;" d="M 0.640625 2.296875 L 0.640625 -9.171875 L 7.140625 -9.171875 L 7.140625 2.296875 Z M 1.375 1.578125 L 6.421875 1.578125 L 6.421875 -8.4375 L 1.375 -8.4375 Z M 1.375 1.578125 "/>
</symbol>
<symbol overflow="visible" id="glyph0-1">
<path style="stroke:none;" d="M 5.125 -8.609375 C 4.1875 -8.609375 3.441406 -8.257812 2.890625 -7.5625 C 2.347656 -6.875 2.078125 -5.929688 2.078125 -4.734375 C 2.078125 -3.535156 2.347656 -2.585938 2.890625 -1.890625 C 3.441406 -1.203125 4.1875 -0.859375 5.125 -0.859375 C 6.050781 -0.859375 6.785156 -1.203125 7.328125 -1.890625 C 7.878906 -2.585938 8.15625 -3.535156 8.15625 -4.734375 C 8.15625 -5.929688 7.878906 -6.875 7.328125 -7.5625 C 6.785156 -8.257812 6.050781 -8.609375 5.125 -8.609375 Z M 5.125 -9.65625 C 6.445312 -9.65625 7.503906 -9.207031 8.296875 -8.3125 C 9.097656 -7.414062 9.5 -6.222656 9.5 -4.734375 C 9.5 -3.234375 9.097656 -2.035156 8.296875 -1.140625 C 7.503906 -0.253906 6.445312 0.1875 5.125 0.1875 C 3.789062 0.1875 2.722656 -0.253906 1.921875 -1.140625 C 1.128906 -2.035156 0.734375 -3.234375 0.734375 -4.734375 C 0.734375 -6.222656 1.128906 -7.414062 1.921875 -8.3125 C 2.722656 -9.207031 3.789062 -9.65625 5.125 -9.65625 Z M 5.125 -9.65625 "/>
</symbol>
<symbol overflow="visible" id="glyph0-2">
<path style="stroke:none;" d="M 1.28125 -9.484375 L 3 -9.484375 L 7.203125 -1.546875 L 7.203125 -9.484375 L 8.453125 -9.484375 L 8.453125 0 L 6.71875 0 L 2.515625 -7.921875 L 2.515625 0 L 1.28125 0 Z M 1.28125 -9.484375 "/>
</symbol>
<symbol overflow="visible" id="glyph0-3">
<path style="stroke:none;" d="M 1.28125 -9.484375 L 2.5625 -9.484375 L 2.5625 -5.59375 L 7.21875 -5.59375 L 7.21875 -9.484375 L 8.5 -9.484375 L 8.5 0 L 7.21875 0 L 7.21875 -4.515625 L 2.5625 -4.515625 L 2.5625 0 L 1.28125 0 Z M 1.28125 -9.484375 "/>
</symbol>
<symbol overflow="visible" id="glyph1-0">
<path style="stroke:none;" d="M 0.546875 1.9375 L 0.546875 -7.75 L 6.046875 -7.75 L 6.046875 1.9375 Z M 1.171875 1.328125 L 5.4375 1.328125 L 5.4375 -7.140625 L 1.171875 -7.140625 Z M 1.171875 1.328125 "/>
</symbol>
<symbol overflow="visible" id="glyph1-1">
<path style="stroke:none;" d="M 5.0625 -6.890625 L 5.0625 -3.90625 L 8.046875 -3.90625 L 8.046875 -2.984375 L 5.0625 -2.984375 L 5.0625 0 L 4.15625 0 L 4.15625 -2.984375 L 1.171875 -2.984375 L 1.171875 -3.90625 L 4.15625 -3.90625 L 4.15625 -6.890625 Z M 5.0625 -6.890625 "/>
</symbol>
<symbol overflow="visible" id="glyph1-2">
<path style="stroke:none;" d="M 0.53125 -3.453125 L 3.4375 -3.453125 L 3.4375 -2.578125 L 0.53125 -2.578125 Z M 0.53125 -3.453125 "/>
</symbol>
</g>
</defs>
<g id="surface46221">
<rect x="0" y="0" width="300" height="300" style="fill:rgb(100%,100%,100%);fill-opacity:1;stroke:none;"/>
<path style="fill:none;stroke-width:1.2;stroke-linecap:butt;stroke-linejoin:miter;stroke:rgb(0%,0%,0%);stroke-opacity:1;stroke-miterlimit:10;" d="M 35.25 63.199219 L 53.71875 92.132812 "/>
<path style="fill:none;stroke-width:1.2;stroke-linecap:butt;stroke-linejoin:miter;stroke:rgb(0%,0%,0%);stroke-opacity:1;stroke-miterlimit:10;" d="M 53.71875 92.132812 L 70.863281 91.371094 "/>
<path style="fill:none;stroke-width:1.2;stroke-linecap:butt;stroke-linejoin:miter;stroke:rgb(100%,0%,0%);stroke-opacity:1;stroke-miterlimit:10;" d="M 70.863281 91.371094 L 88.007812 90.605469 "/>
<path style="fill:none;stroke-width:1.2;stroke-linecap:butt;stroke-linejoin:miter;stroke:rgb(100%,0%,0%);stroke-opacity:1;stroke-miterlimit:10;" d="M 88.007812 90.605469 L 97.242188 105.074219 "/>
<path style="fill:none;stroke-width:1.2;stroke-linecap:butt;stroke-linejoin:miter;stroke:rgb(0%,0%,0%);stroke-opacity:1;stroke-miterlimit:10;" d="M 97.242188 105.074219 L 106.476562 119.539062 "/>
<path style=" stroke:none;fill-rule:nonzero;fill:rgb(100%,100%,100%);fill-opacity:1;" d="M 83.007812 82.605469 L 94.007812 82.605469 L 94.007812 98.605469 L 83.007812 98.605469 Z M 83.007812 82.605469 "/>
<g style="fill:rgb(100%,0%,0%);fill-opacity:1;">
  <use xlink:href="#glyph0-1" x="83.007812" y="94.981445"/>
</g>
<path style="fill:none;stroke-width:1.2;stroke-linecap:butt;stroke-linejoin:miter;stroke:rgb(0%,0%,0%);stroke-opacity:1;stroke-miterlimit:10;" d="M 102.890625 117.679688 L 94.980469 132.910156 "/>
<path style="fill:none;stroke-width:1.2;stroke-linecap:butt;stroke-linejoin:miter;stroke:rgb(100%,0%,0%);stroke-opacity:1;stroke-miterlimit:10;" d="M 94.980469 132.910156 L 87.066406 148.136719 "/>
<path style="fill:none;stroke-width:1.2;stroke-linecap:butt;stroke-linejoin:miter;stroke:rgb(0%,0%,0%);stroke-opacity:1;stroke-miterlimit:10;" d="M 110.058594 121.402344 L 102.148438 136.632812 "/>
<path style="fill:none;stroke-width:1.2;stroke-linecap:butt;stroke-linejoin:miter;stroke:rgb(100%,0%,0%);stroke-opacity:1;stroke-miterlimit:10;" d="M 102.148438 136.632812 L 94.234375 151.863281 "/>
<path style="fill:none;stroke-width:1.2;stroke-linecap:butt;stroke-linejoin:miter;stroke:rgb(0%,0%,0%);stroke-opacity:1;stroke-miterlimit:10;" d="M 106.476562 119.539062 L 140.765625 118.015625 "/>
<path style=" stroke:none;fill-rule:nonzero;fill:rgb(100%,100%,100%);fill-opacity:1;" d="M 79.652344 142 L 90.652344 142 L 90.652344 158 L 79.652344 158 Z M 79.652344 142 "/>
<g style="fill:rgb(100%,0%,0%);fill-opacity:1;">
  <use xlink:href="#glyph0-1" x="79.652344" y="154.375977"/>
</g>
<path style="fill:none;stroke-width:1.2;stroke-linecap:butt;stroke-linejoin:miter;stroke:rgb(0%,0%,0%);stroke-opacity:1;stroke-miterlimit:10;" d="M 140.765625 118.015625 L 156.589844 87.554688 "/>
<path style="fill:none;stroke-width:1.2;stroke-linecap:butt;stroke-linejoin:miter;stroke:rgb(0%,0%,0%);stroke-opacity:1;stroke-miterlimit:10;" d="M 149.515625 118.691406 L 162.175781 94.324219 "/>
<path style="fill:none;stroke-width:1.2;stroke-linecap:butt;stroke-linejoin:miter;stroke:rgb(0%,0%,0%);stroke-opacity:1;stroke-miterlimit:10;" d="M 159.234375 146.949219 L 140.765625 118.015625 "/>
<path style="fill:none;stroke-width:1.2;stroke-linecap:butt;stroke-linejoin:miter;stroke:rgb(0%,0%,0%);stroke-opacity:1;stroke-miterlimit:10;" d="M 156.589844 87.554688 L 173.734375 86.789062 "/>
<path style="fill:none;stroke-width:1.2;stroke-linecap:butt;stroke-linejoin:miter;stroke:rgb(0%,0%,100%);stroke-opacity:1;stroke-miterlimit:10;" d="M 173.734375 86.789062 L 190.882812 86.027344 "/>
<path style="fill:none;stroke-width:1.2;stroke-linecap:butt;stroke-linejoin:miter;stroke:rgb(0%,0%,0%);stroke-opacity:1;stroke-miterlimit:10;" d="M 156.589844 87.554688 L 138.125 58.621094 "/>
<path style="fill:none;stroke-width:1.2;stroke-linecap:butt;stroke-linejoin:miter;stroke:rgb(0%,0%,100%);stroke-opacity:1;stroke-miterlimit:10;" d="M 190.882812 86.027344 L 200.113281 100.496094 "/>
<path style="fill:none;stroke-width:1.2;stroke-linecap:butt;stroke-linejoin:miter;stroke:rgb(0%,0%,0%);stroke-opacity:1;stroke-miterlimit:10;" d="M 200.113281 100.496094 L 209.347656 114.960938 "/>
<path style=" stroke:none;fill-rule:nonzero;fill:rgb(100%,100%,100%);fill-opacity:1;" d="M 180.882812 78.027344 L 200.882812 78.027344 L 200.882812 94.027344 L 180.882812 94.027344 Z M 180.882812 78.027344 "/>
<g style="fill:rgb(0%,0%,100%);fill-opacity:1;">
  <use xlink:href="#glyph0-2" x="180.882812" y="90.40332"/>
  <use xlink:href="#glyph0-3" x="190.852539" y="90.40332"/>
</g>
<path style="fill:none;stroke-width:1.2;stroke-linecap:butt;stroke-linejoin:miter;stroke:rgb(0%,0%,0%);stroke-opacity:1;stroke-miterlimit:10;" d="M 209.347656 114.960938 L 193.523438 145.421875 "/>
<path style="fill:none;stroke-width:1.2;stroke-linecap:butt;stroke-linejoin:miter;stroke:rgb(0%,0%,0%);stroke-opacity:1;stroke-miterlimit:10;" d="M 200.597656 114.285156 L 187.941406 138.652344 "/>
<path style="fill:none;stroke-width:1.2;stroke-linecap:butt;stroke-linejoin:miter;stroke:rgb(0%,0%,0%);stroke-opacity:1;stroke-miterlimit:10;" d="M 209.347656 114.960938 L 243.640625 113.4375 "/>
<path style="fill:none;stroke-width:1.2;stroke-linecap:butt;stroke-linejoin:miter;stroke:rgb(0%,0%,0%);stroke-opacity:1;stroke-miterlimit:10;" d="M 193.523438 145.421875 L 159.234375 146.949219 "/>
<path style="fill:none;stroke-width:1.2;stroke-linecap:butt;stroke-linejoin:miter;stroke:rgb(0%,0%,0%);stroke-opacity:1;stroke-miterlimit:10;" d="M 193.523438 145.421875 L 211.992188 174.355469 "/>
<path style="fill:none;stroke-width:1;stroke-linecap:butt;stroke-linejoin:miter;stroke:rgb(0%,0%,0%);stroke-opacity:1;stroke-miterlimit:10;" d="M 159.234375 146.949219 L 159.234375 146.949219 M 157.410156 149.328125 L 158.335938 149.808594 M 155.585938 151.710938 L 157.433594 152.671875 M 153.757812 154.09375 L 156.535156 155.535156 M 151.933594 156.472656 L 155.636719 158.394531 M 150.109375 158.855469 L 154.738281 161.257812 M 148.285156 161.234375 L 153.835938 164.121094 M 146.460938 163.617188 L 152.9375 166.980469 M 144.636719 166 L 152.039062 169.84375 M 142.8125 168.378906 L 151.140625 172.707031 M 140.988281 170.761719 L 150.242188 175.566406 M 139.164062 173.144531 L 149.339844 178.429688 M 138.035156 174.617188 L 148.785156 180.199219 "/>
<path style="fill:none;stroke-width:1.2;stroke-linecap:butt;stroke-linejoin:miter;stroke:rgb(0%,0%,0%);stroke-opacity:1;stroke-miterlimit:10;" d="M 143.410156 177.40625 L 109.117188 178.933594 "/>
<path style="fill:none;stroke-width:1.2;stroke-linecap:butt;stroke-linejoin:miter;stroke:rgb(0%,0%,0%);stroke-opacity:1;stroke-miterlimit:10;" d="M 140.339844 185.628906 L 112.90625 186.851562 "/>
<path style="fill:none;stroke-width:1.2;stroke-linecap:butt;stroke-linejoin:miter;stroke:rgb(0%,0%,0%);stroke-opacity:1;stroke-miterlimit:10;" d="M 161.875 206.339844 L 143.410156 177.40625 "/>
<path style="fill:none;stroke-width:1.2;stroke-linecap:butt;stroke-linejoin:miter;stroke:rgb(0%,0%,0%);stroke-opacity:1;stroke-miterlimit:10;" d="M 109.117188 178.933594 L 93.292969 209.394531 "/>
<path style="fill:none;stroke-width:1.2;stroke-linecap:butt;stroke-linejoin:miter;stroke:rgb(0%,0%,0%);stroke-opacity:1;stroke-miterlimit:10;" d="M 93.292969 209.394531 L 111.761719 238.328125 "/>
<path style="fill:none;stroke-width:1.2;stroke-linecap:butt;stroke-linejoin:miter;stroke:rgb(0%,0%,0%);stroke-opacity:1;stroke-miterlimit:10;" d="M 101.949219 207.941406 L 116.722656 231.089844 "/>
<path style="fill:none;stroke-width:1.2;stroke-linecap:butt;stroke-linejoin:miter;stroke:rgb(0%,0%,0%);stroke-opacity:1;stroke-miterlimit:10;" d="M 93.292969 209.394531 L 76.148438 210.15625 "/>
<path style="fill:none;stroke-width:1.2;stroke-linecap:butt;stroke-linejoin:miter;stroke:rgb(0%,0%,100%);stroke-opacity:1;stroke-miterlimit:10;" d="M 76.148438 210.15625 L 59.003906 210.921875 "/>
<path style="fill:none;stroke-width:1.2;stroke-linecap:butt;stroke-linejoin:miter;stroke:rgb(0%,0%,0%);stroke-opacity:1;stroke-miterlimit:10;" d="M 111.761719 238.328125 L 146.054688 236.800781 "/>
<path style="fill:none;stroke-width:1.2;stroke-linecap:butt;stroke-linejoin:miter;stroke:rgb(0%,0%,0%);stroke-opacity:1;stroke-miterlimit:10;" d="M 146.054688 236.800781 L 161.875 206.339844 "/>
<path style="fill:none;stroke-width:1.2;stroke-linecap:butt;stroke-linejoin:miter;stroke:rgb(0%,0%,0%);stroke-opacity:1;stroke-miterlimit:10;" d="M 140.46875 230.03125 L 153.128906 205.664062 "/>
<path style="fill:none;stroke-width:1.2;stroke-linecap:butt;stroke-linejoin:miter;stroke:rgb(0%,0%,100%);stroke-opacity:1;stroke-miterlimit:10;" d="M 55.421875 209.058594 L 47.507812 224.289062 "/>
<path style="fill:none;stroke-width:1.2;stroke-linecap:butt;stroke-linejoin:miter;stroke:rgb(100%,0%,0%);stroke-opacity:1;stroke-miterlimit:10;" d="M 47.507812 224.289062 L 39.597656 239.519531 "/>
<path style="fill:none;stroke-width:1.2;stroke-linecap:butt;stroke-linejoin:miter;stroke:rgb(0%,0%,100%);stroke-opacity:1;stroke-miterlimit:10;" d="M 62.585938 212.78125 L 54.675781 228.011719 "/>
<path style="fill:none;stroke-width:1.2;stroke-linecap:butt;stroke-linejoin:miter;stroke:rgb(100%,0%,0%);stroke-opacity:1;stroke-miterlimit:10;" d="M 54.675781 228.011719 L 46.761719 243.242188 "/>
<path style="fill:none;stroke-width:1.2;stroke-linecap:butt;stroke-linejoin:miter;stroke:rgb(0%,0%,100%);stroke-opacity:1;stroke-miterlimit:10;" d="M 59.003906 210.921875 L 49.769531 196.453125 "/>
<path style="fill:none;stroke-width:1.2;stroke-linecap:butt;stroke-linejoin:miter;stroke:rgb(100%,0%,0%);stroke-opacity:1;stroke-miterlimit:10;" d="M 49.769531 196.453125 L 40.535156 181.984375 "/>
<path style=" stroke:none;fill-rule:nonzero;fill:rgb(100%,100%,100%);fill-opacity:1;" d="M 49.003906 201.421875 L 69.003906 201.421875 L 69.003906 220.421875 L 49.003906 220.421875 Z M 49.003906 201.421875 "/>
<g style="fill:rgb(0%,0%,100%);fill-opacity:1;">
  <use xlink:href="#glyph0-2" x="49.003906" y="216.617188"/>
</g>
<g style="fill:rgb(0%,0%,100%);fill-opacity:1;">
  <use xlink:href="#glyph1-1" x="58.973633" y="211.734375"/>
</g>
<path style=" stroke:none;fill-rule:nonzero;fill:rgb(100%,100%,100%);fill-opacity:1;" d="M 32.179688 233.378906 L 43.179688 233.378906 L 43.179688 249.378906 L 32.179688 249.378906 Z M 32.179688 233.378906 "/>
<g style="fill:rgb(100%,0%,0%);fill-opacity:1;">
  <use xlink:href="#glyph0-1" x="32.179688" y="245.754883"/>
</g>
<path style=" stroke:none;fill-rule:nonzero;fill:rgb(100%,100%,100%);fill-opacity:1;" d="M 25.535156 172.484375 L 40.535156 172.484375 L 40.535156 191.484375 L 25.535156 191.484375 Z M 25.535156 172.484375 "/>
<g style="fill:rgb(100%,0%,0%);fill-opacity:1;">
  <use xlink:href="#glyph1-2" x="25.535156" y="182.796875"/>
</g>
<g style="fill:rgb(100%,0%,0%);fill-opacity:1;">
  <use xlink:href="#glyph0-1" x="29.543945" y="187.679688"/>
</g>
<path style="fill:none;stroke-width:1.2;stroke-linecap:butt;stroke-linejoin:miter;stroke:rgb(0%,0%,0%);stroke-opacity:1;stroke-miterlimit:10;" d="M 208.410156 172.492188 L 200.496094 187.722656 "/>
<path style="fill:none;stroke-width:1.2;stroke-linecap:butt;stroke-linejoin:miter;stroke:rgb(100%,0%,0%);stroke-opacity:1;stroke-miterlimit:10;" d="M 200.496094 187.722656 L 192.585938 202.953125 "/>
<path style="fill:none;stroke-width:1.2;stroke-linecap:butt;stroke-linejoin:miter;stroke:rgb(0%,0%,0%);stroke-opacity:1;stroke-miterlimit:10;" d="M 215.574219 176.21875 L 207.664062 191.445312 "/>
<path style="fill:none;stroke-width:1.2;stroke-linecap:butt;stroke-linejoin:miter;stroke:rgb(100%,0%,0%);stroke-opacity:1;stroke-miterlimit:10;" d="M 207.664062 191.445312 L 199.75 206.675781 "/>
<path style="fill:none;stroke-width:1.2;stroke-linecap:butt;stroke-linejoin:miter;stroke:rgb(0%,0%,0%);stroke-opacity:1;stroke-miterlimit:10;" d="M 211.992188 174.355469 L 229.136719 173.59375 "/>
<path style="fill:none;stroke-width:1.2;stroke-linecap:butt;stroke-linejoin:miter;stroke:rgb(100%,0%,0%);stroke-opacity:1;stroke-miterlimit:10;" d="M 229.136719 173.59375 L 246.28125 172.828125 "/>
<path style=" stroke:none;fill-rule:nonzero;fill:rgb(100%,100%,100%);fill-opacity:1;" d="M 185.167969 196.816406 L 196.167969 196.816406 L 196.167969 212.816406 L 185.167969 212.816406 Z M 185.167969 196.816406 "/>
<g style="fill:rgb(100%,0%,0%);fill-opacity:1;">
  <use xlink:href="#glyph0-1" x="185.167969" y="209.192383"/>
</g>
<path style="fill:none;stroke-width:1.2;stroke-linecap:butt;stroke-linejoin:miter;stroke:rgb(100%,0%,0%);stroke-opacity:1;stroke-miterlimit:10;" d="M 246.28125 172.828125 L 255.515625 187.296875 "/>
<path style="fill:none;stroke-width:1.2;stroke-linecap:butt;stroke-linejoin:miter;stroke:rgb(0%,0%,0%);stroke-opacity:1;stroke-miterlimit:10;" d="M 255.515625 187.296875 L 264.75 201.761719 "/>
<path style=" stroke:none;fill-rule:nonzero;fill:rgb(100%,100%,100%);fill-opacity:1;" d="M 241.28125 164.828125 L 252.28125 164.828125 L 252.28125 180.828125 L 241.28125 180.828125 Z M 241.28125 164.828125 "/>
<g style="fill:rgb(100%,0%,0%);fill-opacity:1;">
  <use xlink:href="#glyph0-1" x="241.28125" y="177.204102"/>
</g>
</g>
</svg>

<svg xmlns="http://www.w3.org/2000/svg" xmlns:xlink="http://www.w3.org/1999/xlink" width="300pt" height="300pt" viewBox="0 0 300 300"><defs><symbol overflow="visible"><path d="M.64 2.297v-11.47h6.5v11.47zm.735-.72h5.047V-8.436H1.375zm0 0"/></symbol><symbol overflow="visible" id="a"><path d="M5.125-8.61c-.938 0-1.684.352-2.234 1.047-.542.688-.812 1.633-.812 2.83 0 1.198.27 2.147.813 2.842.55.687 1.297 1.03 2.235 1.03.926 0 1.66-.343 2.203-1.03.55-.696.828-1.645.828-2.844 0-1.196-.277-2.14-.828-2.829-.543-.695-1.277-1.046-2.203-1.046zm0-1.046c1.32 0 2.38.45 3.172 1.344.8.898 1.203 2.09 1.203 3.578 0 1.5-.402 2.7-1.203 3.593C7.504-.255 6.445.186 5.125.186c-1.336 0-2.402-.44-3.203-1.328C1.13-2.036.734-3.235.734-4.735c0-1.49.395-2.68 1.188-3.579.8-.894 1.867-1.343 3.203-1.343zm0 0"/></symbol><symbol overflow="visible" id="b"><path d="M1.28-9.484H3l4.203 7.937v-7.937h1.25V0H6.72L2.515-7.922V0H1.28zm0 0"/></symbol><symbol overflow="visible" id="c"><path d="M1.28-9.484h1.282v3.89H7.22v-3.89H8.5V0H7.22v-4.516H2.562V0H1.28zm0 0"/></symbol><symbol overflow="visible"><path d="M.547 1.938V-7.75h5.5v9.688zm.625-.61h4.266v-8.47H1.171zm0 0"/></symbol><symbol overflow="visible" id="d"><path d="M5.063-6.89v2.984h2.984v.922H5.062V0h-.906v-2.984H1.172v-.922h2.984V-6.89zm0 0"/></symbol><symbol overflow="visible" id="e"><path d="M.53-3.453h2.907v.875H.53zm0 0"/></symbol></defs><g><path fill="#fff" d="M0 0h300v300H0z"/><path d="M35.25 63.2l18.47 28.933M53.72 92.133l17.143-.762" stroke-width="1.2" stroke="#000" stroke-miterlimit="10" fill="none"/><path d="M70.863 91.37l17.145-.765M88.008 90.605l9.234 14.47" stroke-width="1.2" stroke="#f00" stroke-miterlimit="10" fill="none"/><path d="M97.242 105.074l9.235 14.465" stroke-width="1.2" stroke="#000" stroke-miterlimit="10" fill="none"/><path d="M83.008 82.605h11v16h-11zm0 0" fill="#fff"/><use xlink:href="#a" x="83.008" y="94.981" fill="#f00"/><path d="M102.89 117.68l-7.91 15.23" stroke-width="1.2" stroke="#000" stroke-miterlimit="10" fill="none"/><path d="M94.98 132.91l-7.914 15.227" stroke-width="1.2" stroke="#f00" stroke-miterlimit="10" fill="none"/><path d="M110.06 121.402l-7.912 15.23" stroke-width="1.2" stroke="#000" stroke-miterlimit="10" fill="none"/><path d="M102.148 136.633l-7.914 15.23" stroke-width="1.2" stroke="#f00" stroke-miterlimit="10" fill="none"/><path d="M106.477 119.54l34.29-1.524" stroke-width="1.2" stroke="#000" stroke-miterlimit="10" fill="none"/><path d="M79.652 142h11v16h-11zm0 0" fill="#fff"/><use xlink:href="#a" x="79.652" y="154.376" fill="#f00"/><path d="M140.766 118.016l15.824-30.46M149.516 118.69l12.66-24.366M159.234 146.95l-18.468-28.934M156.59 87.555l17.144-.766" stroke-width="1.2" stroke="#000" stroke-miterlimit="10" fill="none"/><path d="M173.734 86.79l17.15-.763" stroke-width="1.2" stroke="#00f" stroke-miterlimit="10" fill="none"/><path d="M156.59 87.555L138.125 58.62" stroke-width="1.2" stroke="#000" stroke-miterlimit="10" fill="none"/><path d="M190.883 86.027l9.23 14.47" stroke-width="1.2" stroke="#00f" stroke-miterlimit="10" fill="none"/><path d="M200.113 100.496l9.235 14.465" stroke-width="1.2" stroke="#000" stroke-miterlimit="10" fill="none"/><path d="M180.883 78.027h20v16h-20zm0 0" fill="#fff"/><g fill="#00f"><use xlink:href="#b" x="180.883" y="90.403"/><use xlink:href="#c" x="190.853" y="90.403"/></g><path d="M209.348 114.96l-15.825 30.462M200.598 114.285l-12.657 24.367M209.348 114.96l34.293-1.522M193.523 145.422l-34.29 1.527M193.523 145.422l18.47 28.933" stroke-width="1.2" stroke="#000" stroke-miterlimit="10" fill="none"/><path d="M159.234 146.95m-1.824 2.378l.926.48m-2.75 1.903l1.848.962m-3.676 1.422l2.777 1.44m-4.6.94l3.702 1.92m-5.528.46l4.628 2.404m-6.453-.024l5.55 2.887m-7.374-.503l6.477 3.363m-8.3-.98l7.402 3.844m-9.227-1.465l8.328 4.327m-10.152-1.945l9.254 4.804m-11.078-2.42l10.176 5.284m-11.305-3.813l10.75 5.582" stroke="#000" stroke-miterlimit="10" fill="none"/><path d="M143.41 177.406l-34.293 1.528M140.34 185.63l-27.434 1.222M161.875 206.34l-18.465-28.934M109.117 178.934l-15.824 30.46M93.293 209.395l18.47 28.933M101.95 207.94l14.773 23.15M93.293 209.395l-17.145.76" stroke-width="1.2" stroke="#000" stroke-miterlimit="10" fill="none"/><path d="M76.148 210.156l-17.144.766" stroke-width="1.2" stroke="#00f" stroke-miterlimit="10" fill="none"/><path d="M111.762 238.328l34.293-1.527M146.055 236.8l15.82-30.46M140.47 230.03l12.66-24.366" stroke-width="1.2" stroke="#000" stroke-miterlimit="10" fill="none"/><path d="M55.422 209.06l-7.914 15.23" stroke-width="1.2" stroke="#00f" stroke-miterlimit="10" fill="none"/><path d="M47.508 224.29l-7.91 15.23" stroke-width="1.2" stroke="#f00" stroke-miterlimit="10" fill="none"/><path d="M62.586 212.78l-7.91 15.232" stroke-width="1.2" stroke="#00f" stroke-miterlimit="10" fill="none"/><path d="M54.676 228.012l-7.914 15.23" stroke-width="1.2" stroke="#f00" stroke-miterlimit="10" fill="none"/><path d="M59.004 210.922l-9.234-14.47" stroke-width="1.2" stroke="#00f" stroke-miterlimit="10" fill="none"/><path d="M49.77 196.453l-9.235-14.47" stroke-width="1.2" stroke="#f00" stroke-miterlimit="10" fill="none"/><path d="M49.004 201.422h20v19h-20zm0 0" fill="#fff"/><use xlink:href="#b" x="49.004" y="216.617" fill="#00f"/><use xlink:href="#d" x="58.974" y="211.734" fill="#00f"/><path d="M32.18 233.38h11v16h-11zm0 0" fill="#fff"/><use xlink:href="#a" x="32.18" y="245.755" fill="#f00"/><path d="M25.535 172.484h15v19h-15zm0 0" fill="#fff"/><use xlink:href="#e" x="25.535" y="182.797" fill="#f00"/><use xlink:href="#a" x="29.544" y="187.68" fill="#f00"/><path d="M208.41 172.492l-7.914 15.23" stroke-width="1.2" stroke="#000" stroke-miterlimit="10" fill="none"/><path d="M200.496 187.723l-7.91 15.23" stroke-width="1.2" stroke="#f00" stroke-miterlimit="10" fill="none"/><path d="M215.574 176.22l-7.91 15.225" stroke-width="1.2" stroke="#000" stroke-miterlimit="10" fill="none"/><path d="M207.664 191.445l-7.914 15.23" stroke-width="1.2" stroke="#f00" stroke-miterlimit="10" fill="none"/><path d="M211.992 174.355l17.145-.76" stroke-width="1.2" stroke="#000" stroke-miterlimit="10" fill="none"/><path d="M229.137 173.594l17.144-.766" stroke-width="1.2" stroke="#f00" stroke-miterlimit="10" fill="none"/><path d="M185.168 196.816h11v16h-11zm0 0" fill="#fff"/><use xlink:href="#a" x="185.168" y="209.192" fill="#f00"/><path d="M246.28 172.828l9.236 14.47" stroke-width="1.2" stroke="#f00" stroke-miterlimit="10" fill="none"/><path d="M255.516 187.297l9.234 14.465" stroke-width="1.2" stroke="#000" stroke-miterlimit="10" fill="none"/><path d="M241.28 164.828h11v16h-11zm0 0" fill="#fff"/><use xlink:href="#a" x="241.281" y="177.204" fill="#f00"/></g></svg>
